X:5140
T:The Heart's A Wonder
M:3/4
L:1/8
C:Aidan Crossey
R:Air
K:G
|:DF/G/A|[D3B3] c/B/AG|[c2e2] [D4d4]|[c2e2] [Dd] B/G/FG|[D3A3] DF/G/A|
[D3B3] c/B/AG|[c2e2] [D4d4]|gg/f/e dB/G/A|F[G,2G2B2:||
|:AB/c/d|[c3e3] e/f/gf|[c2e2] [D4d4]|[c2e2] [Dd] B/G/FG|[D3A3] AB/c/d|
[c3e3] e/f/gf|[c2e2] [D4d4]|[c2e2] [Dd] B/G/AF|[G,3G3B3]:||
